themes/dashboard3/design/images/vanilla-black.svg

<svg xmlns="http://www.w3.org/2000/svg" width="15.444" height="6.167" viewBox="2.284 6.911 15.444 6.167"><path d="M12.887 11.957c-1.018-.172-.861-1.856-.495-2.573.911.025 2.128-1.278 1.892-2.202-.046-.171-.178-.214-.281-.24-1.189-.28-1.811 1.414-2.118 2.205-.28-.043-.575-.187-.626-.389.601.199.734-.773.217-.887-.275-.038-.51.116-.54.452 0 .169.03.358.151.563.151.258.473.379.734.452-.126.435-.258.912-.279 1.407-.023.449.037 2.021 1.037 1.882.223-.033.316-.339.389-.584.019-.068-.03-.07-.081-.086zm.747-4.73c.768-.012-.543 1.917-1.144 1.902.262-.647.755-1.899 1.144-1.902zm-5.798 4.518c-.407-.694-.321-1.467-.217-2.336-.457-.359-.815.22-.909.626-.47-.404-1.093-.038-1.255.24-.22.379-.235.922-.066 1.341.25.61 1.518.949 1.859.065.177.253.692.604.876.438.156-.146-.167-.111-.288-.374zm-1.366-.106c-.379-.111-.495-.684-.389-1.126.078-.222.389-.235.585-.106.232.149.291.552.369.843-.096.266-.348.449-.565.389zm8.181.606c-.689-.263-.889-.979-.866-1.773 1.611-.343 2.412-2.131 2.142-2.55-.288-.414-.715-.192-1.144.065-.275.164-1.225.773-1.514 2.248a.415.415 0 0 1-.391.002c-.059-.022-.094.023-.088.088.007.038.15.162.418.205-.078.679.146 1.761.579 2.215a.711.711 0 0 0 .452.194c.199-.01.641-.268.586-.498-.022-.083-.016-.132-.174-.196zm.712-4.109c.218.094-.298.947-.411 1.126a2.014 2.014 0 0 1-1.081.821c.245-.828 1.191-2.081 1.492-1.947zM5.596 9.192c.315-.25.75-.381 1.144-.412.222-.586-.505-.838-.995-.735-.591.147-1.094 1.119-1.278 1.707-.23.737-.088 1.628.106 2.399-.399-.371-.899-.906-1.126-1.449a11.114 11.114 0 0 1-.151-.389c-.16-.472-.134-1.083.065-1.384-.253-.048-.495.091-.692.258-.139.126-.343.378-.381.54-.079.326.139.7.28.972.288.551.479.799.886 1.21.401.406.763.682 1.255.972.243.143.576.301.798.106-.169-.409-1.365-2.651.089-3.795zm5.674.364a.372.372 0 0 0-.578-.164c-.28.232-.265 1.575-.164 1.772.059.25.482.398.589.104.046-.159-.114.01-.197-.126-.385-.586.472-1.205.35-1.586zm-1.487 1.799c-.045-.371.336-.909.323-1.34-.007-.252-.091-.515-.346-.586-.641-.088-.922.301-1.21.67-.146-.308-.482-.599-.798-.324-.139.154.152.578.28.887.091.219.205.446.217.669.01.151-.083.368.043.389.414.048.3-.664.389-1.038.081-.338.243-.507.586-.626.437-.124-.929 2.394.864 2.228.22-.096.488-.385.28-.649-.29.019-.588.054-.628-.28zm7.676-1.06c-.242-.035-.416.205-.586.281.146-.384-.182-.634-.257-.715-1.116-.738-2.689 1.212-1.901 1.967.338.268.876.334 1.255.043.05.609 1.245.702 1.255.105-1.451.377.266-.843.475-1.297.083-.177-.023-.351-.241-.384zm-1.621 1.321c-.217-.011-.365-.022-.411-.218a.918.918 0 0 1 .669-1.015c.982-.259.172 1.256-.258 1.233z"/></svg>

<?xml version="1.0" encoding="utf-8"?>
<!-- Generator: Adobe Illustrator 16.0.0, SVG Export Plug-In . SVG Version: 6.00 Build 0)  -->
<!DOCTYPE svg PUBLIC "-//W3C//DTD SVG 1.1//EN" "http://www.w3.org/Graphics/SVG/1.1/DTD/svg11.dtd">
<svg version="1.1" id="Layer_1" xmlns="http://www.w3.org/2000/svg" xmlns:xlink="http://www.w3.org/1999/xlink" x="0px" y="0px"
	 width="15.444px" height="6.167px" viewBox="2.284 6.911 15.444 6.167" enable-background="new 2.284 6.911 15.444 6.167"
	 xml:space="preserve">
<path d="M12.887,11.957c-1.018-0.172-0.861-1.856-0.495-2.573c0.911,0.025,2.128-1.278,1.892-2.202
	c-0.046-0.171-0.178-0.214-0.281-0.24c-1.189-0.28-1.811,1.414-2.118,2.205c-0.28-0.043-0.575-0.187-0.626-0.389
	c0.601,0.199,0.734-0.773,0.217-0.887c-0.275-0.038-0.51,0.116-0.54,0.452c0,0.169,0.03,0.358,0.151,0.563
	c0.151,0.258,0.473,0.379,0.734,0.452c-0.126,0.435-0.258,0.912-0.279,1.407c-0.023,0.449,0.037,2.021,1.037,1.882
	c0.223-0.033,0.316-0.339,0.389-0.584C12.987,11.975,12.938,11.973,12.887,11.957z M13.634,7.227
	c0.768-0.012-0.543,1.917-1.144,1.902C12.752,8.482,13.245,7.23,13.634,7.227z M7.836,11.745c-0.407-0.694-0.321-1.467-0.217-2.336
	c-0.457-0.359-0.815,0.22-0.909,0.626c-0.47-0.404-1.093-0.038-1.255,0.24c-0.22,0.379-0.235,0.922-0.066,1.341
	c0.25,0.61,1.518,0.949,1.859,0.065c0.177,0.253,0.692,0.604,0.876,0.438C8.28,11.973,7.957,12.008,7.836,11.745z M6.47,11.639
	c-0.379-0.111-0.495-0.684-0.389-1.126c0.078-0.222,0.389-0.235,0.585-0.106c0.232,0.149,0.291,0.552,0.369,0.843
	C6.939,11.516,6.687,11.699,6.47,11.639z M14.651,12.245c-0.689-0.263-0.889-0.979-0.866-1.773c1.611-0.343,2.412-2.131,2.142-2.55
	c-0.288-0.414-0.715-0.192-1.144,0.065c-0.275,0.164-1.225,0.773-1.514,2.248c-0.125,0.061-0.244,0.071-0.391,0.002
	c-0.059-0.022-0.094,0.023-0.088,0.088c0.007,0.038,0.15,0.162,0.418,0.205c-0.078,0.679,0.146,1.761,0.579,2.215
	c0.101,0.106,0.313,0.199,0.452,0.194c0.199-0.01,0.641-0.268,0.586-0.498C14.803,12.358,14.809,12.309,14.651,12.245L14.651,12.245
	z M15.363,8.136c0.218,0.094-0.298,0.947-0.411,1.126c-0.232,0.369-0.626,0.677-1.081,0.821C14.116,9.255,15.062,8.002,15.363,8.136
	z M5.596,9.192c0.315-0.25,0.75-0.381,1.144-0.412c0.222-0.586-0.505-0.838-0.995-0.735C5.154,8.192,4.651,9.164,4.467,9.752
	c-0.23,0.737-0.088,1.628,0.106,2.399c-0.399-0.371-0.899-0.906-1.126-1.449c-0.035-0.083-0.134-0.338-0.151-0.389
	C3.136,9.841,3.162,9.23,3.361,8.929C3.108,8.881,2.866,9.02,2.669,9.187C2.53,9.313,2.326,9.565,2.288,9.727
	c-0.079,0.326,0.139,0.7,0.28,0.972c0.288,0.551,0.479,0.799,0.886,1.21c0.401,0.406,0.763,0.682,1.255,0.972
	c0.243,0.143,0.576,0.301,0.798,0.106C5.338,12.578,4.142,10.336,5.596,9.192z M11.27,9.556c-0.067-0.207-0.36-0.336-0.578-0.164
	c-0.28,0.232-0.265,1.575-0.164,1.772c0.059,0.25,0.482,0.398,0.589,0.104c0.046-0.159-0.114,0.01-0.197-0.126
	C10.535,10.556,11.392,9.937,11.27,9.556z M9.783,11.355c-0.045-0.371,0.336-0.909,0.323-1.34C10.099,9.763,10.015,9.5,9.76,9.429
	C9.119,9.341,8.838,9.73,8.55,10.099C8.404,9.791,8.068,9.5,7.752,9.775c-0.139,0.154,0.152,0.578,0.28,0.887
	c0.091,0.219,0.205,0.446,0.217,0.669c0.01,0.151-0.083,0.368,0.043,0.389c0.414,0.048,0.3-0.664,0.389-1.038
	c0.081-0.338,0.243-0.507,0.586-0.626c0.437-0.124-0.929,2.394,0.864,2.228c0.22-0.096,0.488-0.385,0.28-0.649
	C10.121,11.654,9.823,11.689,9.783,11.355z M17.459,10.295c-0.242-0.035-0.416,0.205-0.586,0.281
	c0.146-0.384-0.182-0.634-0.257-0.715c-1.116-0.738-2.689,1.212-1.901,1.967c0.338,0.268,0.876,0.334,1.255,0.043
	c0.05,0.609,1.245,0.702,1.255,0.105c-1.451,0.377,0.266-0.843,0.475-1.297C17.783,10.502,17.677,10.328,17.459,10.295z
	 M15.838,11.616c-0.217-0.011-0.365-0.022-0.411-0.218c-0.065-0.561,0.313-0.921,0.669-1.015
	C17.078,10.124,16.268,11.639,15.838,11.616z"/>
</svg>
